icons/outline/building-tunnel.svg

<!--
tags: [train, road, underground, subway]
category: Buildings
unicode: "f5a6"
version: "1.110"
-->
<svg
  xmlns="http://www.w3.org/2000/svg"
  width="24"
  height="24"
  viewBox="0 0 24 24"
  fill="none"
  stroke="currentColor"
  stroke-width="2"
  stroke-linecap="round"
  stroke-linejoin="round"
>
  <path d="M5 21h14a2 2 0 0 0 2 -2v-7a9 9 0 0 0 -18 0v7a2 2 0 0 0 2 2zm3 0v-9a4 4 0 1 1 8 0v9m-13 -4h4m10 0h4m0 -5h-4m-10 0h-4m9 -9v5m-6 -2l3 3m6 0l3 -3l-3 3z" />
</svg>

<!--
tags: [train, road, underground, subway]
category: Buildings
unicode: "f5a6"
version: "1.110"
-->
<svg
  xmlns="http://www.w3.org/2000/svg"
  width="24"
  height="24"
  viewBox="0 0 24 24"
  fill="none"
  stroke="currentColor"
  stroke-width="2"
  stroke-linecap="round"
  stroke-linejoin="round"
>
    <path d="M5 21h14a2 2 0 0 0 2 -2v-7a9 9 0 0 0 -18 0v7a2 2 0 0 0 2 2zM8 21v-9a4 4 0 1 1 8 0v9M3 17h4M17 17h4M21 12h-4M7 12h-4M12 3v5M6 6l3 3M15 9l3 -3l-3 3z" />
</svg>
